X: 2100
T: The Fairy
B: nick
B: to learn
M:4/4
Q: 1/4=100
K:Gmajor
V:1 
|:B2BA GBdB|cBAG FGAc|BG (3GGG dcAG|FGAF GFED|
 B2BA GBdB|cBAG FGAc|BG (3GGG dcAG|1 FGAF G2GA:|2 FGAF GABc||
 |:d2dB eged|cABc dedc|BG (3GGG dcAG|FGAF GFED|
 d2dB eged|cABc dedc|BG (3GGG dcAG|1 FGAF GABc:|2 FGAF G2GA||
% abcbook-tune_id 634560dba2098576a102d2d2


% abcbook-boost 0
% abcbook-tablature 
% abcbook-transpose 
% abcbook-lastupdated 1666005796312
% abcbook-soundfonts 
% abcbook-repeats 3


